public/img/general/logos/chevrolet_logo_black.svg

<svg width="67" height="27" viewBox="0 0 67 27" fill="none" xmlns="http://www.w3.org/2000/svg">
<path d="M21.6027 2.75529V5.51118L14.3975 5.53784L7.19225 5.57818L3.60296 13.3755L0 21.1721L10.8082 21.2124L21.6027 21.2391V23.6586V26.0781H33.8357H46.0687V23.3892V20.7003L51.0157 20.6867C53.7313 20.673 56.8768 20.6327 58.0063 20.5793L60.0628 20.4987L63.531 13.1047L67 5.71286L56.5952 5.67252L46.204 5.64586V2.82297V8.39233e-05H33.9034H21.6027V2.75529Z" fill="black"/>
</svg>

<svg width="67" height="27" fill="none" xmlns="http://www.w3.org/2000/svg"><path d="M21.603 2.755v2.756l-7.206.027-7.205.04-3.589 7.798L0 21.172l10.808.04 10.795.027v4.84h24.466V20.7l4.947-.013c2.715-.014 5.86-.054 6.99-.108l2.057-.08 3.468-7.394L67 5.713l-10.405-.04-10.391-.027V0H21.603v2.755z" fill="#000"/></svg>
